images_sukapura_svg/cmd/32/showtrackedchanges.svg

<svg viewBox="0 0 32 32" xmlns="http://www.w3.org/2000/svg" xmlns:xlink="http://www.w3.org/1999/xlink"><linearGradient id="a" gradientUnits="userSpaceOnUse" x1="20" x2="23" y1="9" y2="6"><stop offset="0" stop-color="#fff"/><stop offset=".77967989" stop-color="#f1f1f1"/><stop offset="1" stop-color="#d5d5d5"/></linearGradient><radialGradient id="b" cx="22" cy="9.076923" gradientTransform="matrix(1.3 .00000001 -.00000002 1.5 -6.6 -6.615385)" gradientUnits="userSpaceOnUse" r="10"><stop offset="0" stop-color="#d7d7d7"/><stop offset=".29999998" stop-color="#f7f7f7"/><stop offset="1" stop-color="#fff"/></radialGradient><linearGradient id="c" gradientUnits="userSpaceOnUse" x1="58.364407" x2="58.466102" y1="29.330509" y2="23.567796"><stop offset="0" stop-color="#0040dd"/><stop offset="1" stop-color="#0a84ff"/></linearGradient><path d="m6 3v26h20v-14.810547-4.189453l-7-7zm19.998047 23.066406.001953 2.933594h-.002z" fill="url(#b)"/><g fill="#98989d"><path d="m5.9980469 2c-.554 0-1 .446-1 1v26c0 .554.446 1 1 1h7.0019531.482422 8.605469 1.912109 1.998047c.554 0 .892483-.456533 1-1v-3h.001953v-13h-.001953v-4.6152344l-6.507813-6.3847656zm0 1h13.0000001v6c0 .6726441.491378 1 1 1h6v4.189453h.001953v11.810547h.064453l-.066406.066406v2.933594h-1.998047-.917969-9.353515-.728516-7.0019531z"/><rect height="1" ry=".5" width="5" x="8" y="10"/><rect height="1" ry=".5" width="9" x="8" y="14"/></g><g fill="#ff9f0a"><rect height="1" ry=".5" width="5" x="19" y="14"/><rect height="1" ry=".5" width="7" x="8" y="18"/><path d="m8.5 26c-.277 0-.5.223-.5.5s.223.5.5.5h5.720703l.246094-1z"/></g><g fill="#98989d"><rect height="1" ry=".474576" width="4" x="8" y="22"/><path d="m14.474609 22c-.262915 0-.474609.211694-.474609.474609v.050782c0 .262915.211694.474609.474609.474609h2.296875l.953125-.953125c-.060895-.028313-.127406-.046875-.199218-.046875z"/><rect height="1" ry=".474576" width="4" x="17" y="18"/><rect height="1" ry=".5" width="2" x="15" y="10"/></g><path d="m20 9h6l-6-6z" fill="url(#a)" fill-rule="evenodd"/><path d="m26.998047 13v4.556641c-.330998-.183105-.664031-.355544-.998047-.50586v-2.861328h-.001953v2.859375c-1.47768-.664515-2.983325-1.013855-4.515625-1.005859-3.953708.02057-7.693819 2.351765-11.197266 6.439453-.3592144.419602-.3102448 1.050962.109375 1.410156l.757813.650391c.419602.359215 1.050962.310246 1.410156-.109375.927264-1.081896 1.813013-1.744929 2.707031-2.488282-.12726.506559-.269531 1.009489-.269531 1.554688 0 2.313824 1.225524 4.347665 3.056641 5.5.892917.561919 1.929455.911513 3.041015.980469.01072.00604.0205.013531.03125.019531h.958985 1.912109 1.998047c.554 0 .892483-.456533 1-1v-3h.001953v-13zm-.998047 13h.064453l-.064453.064453zm-.001953 2.177734v.822266h-1.054688c.379322-.238709.733093-.512874 1.054688-.822266z" fill="#fff" fill-opacity=".784314"/><path d="m21.5 18c-3.037566 0-5.5 2.462434-5.5 5.5s2.462434 5.5 5.5 5.5 5.5-2.462434 5.5-5.5-2.462434-5.5-5.5-5.5zm0 1a4.5 4.5 0 0 1 4.5 4.5 4.5 4.5 0 0 1 -4.5 4.5 4.5 4.5 0 0 1 -4.5-4.5 4.5 4.5 0 0 1 4.5-4.5z" fill="#98989d"/><circle cx="21.5" cy="23.500002" fill="#fff" r="4.5"/><path d="m21.483799 20.532509c-1.647906 0-2.983799 1.335893-2.983799 2.983801 0 1.647906 1.335893 2.983799 2.983799 2.983799 1.647908 0 2.983801-1.335892 2.983801-2.983799.0432-.290763.0432-.586312 0-.877076-.259603.580395-.858514.932489-1.4919.877076-.823954 0-1.491901-.667947-1.491901-1.491901-.05492-.634098.298454-1.233222.879989-1.4919-.291717-.04349-.588271-.04349-.879989 0z" fill="url(#c)"/><path d="m11.423729 23.457627c6.689796-7.805398 13.423201-7.979466 20.20339.0339" fill="none" stroke="#98989d"/></svg>

<?xml version="1.0" encoding="UTF-8" standalone="no"?>
<svg
   xmlns:dc="http://purl.org/dc/elements/1.1/"
   xmlns:cc="http://creativecommons.org/ns#"
   xmlns:rdf="http://www.w3.org/1999/02/22-rdf-syntax-ns#"
   xmlns:svg="http://www.w3.org/2000/svg"
   xmlns="http://www.w3.org/2000/svg"
   xmlns:xlink="http://www.w3.org/1999/xlink"
   xmlns:sodipodi="http://sodipodi.sourceforge.net/DTD/sodipodi-0.dtd"
   xmlns:inkscape="http://www.inkscape.org/namespaces/inkscape"
   viewBox="0 0 32 32"
   version="1.1"
   id="svg36"
   sodipodi:docname="showtrackedchanges.svg"
   inkscape:version="0.92.3 (2405546, 2018-03-11)"
   inkscape:export-filename="/home/rizmut/Documents/Rizmut/Github/libreoffice-style-sukapura/images_sukapura/cmd/32/showtrackedchanges.png"
   inkscape:export-xdpi="96"
   inkscape:export-ydpi="96">
  <metadata
     id="metadata42">
    <rdf:RDF>
      <cc:Work
         rdf:about="">
        <dc:format>image/svg+xml</dc:format>
        <dc:type
           rdf:resource="http://purl.org/dc/dcmitype/StillImage" />
        <dc:title />
      </cc:Work>
    </rdf:RDF>
  </metadata>
  <defs
     id="defs40">
    <linearGradient
       id="b"
       gradientUnits="userSpaceOnUse"
       x1="20"
       x2="23"
       y1="9"
       y2="6">
      <stop
         offset="0"
         stop-color="#fff"
         id="stop1004" />
      <stop
         offset=".77967989"
         stop-color="#f1f1f1"
         id="stop1006" />
      <stop
         offset="1"
         stop-color="#d5d5d5"
         id="stop1008" />
    </linearGradient>
    <radialGradient
       id="a"
       cx="22"
       cy="9.0769234"
       gradientTransform="matrix(1.3,1e-8,-2e-8,1.5,-6.6,-6.615385)"
       gradientUnits="userSpaceOnUse"
       r="10">
      <stop
         offset="0"
         stop-color="#d7d7d7"
         id="stop997" />
      <stop
         offset=".29999998"
         stop-color="#f7f7f7"
         id="stop999" />
      <stop
         offset="1"
         stop-color="#fff"
         id="stop1001" />
    </radialGradient>
    <linearGradient
       gradientTransform="translate(36.677966,2.9152542)"
       id="a-6"
       gradientUnits="userSpaceOnUse"
       x1="14"
       x2="13.79661"
       y1="22"
       y2="2.1355929">
      <stop
         offset="0"
         stop-color="#0040dd"
         id="stop1105" />
      <stop
         offset="1"
         stop-color="#0a84ff"
         id="stop1107" />
    </linearGradient>
    <linearGradient
       inkscape:collect="always"
       xlink:href="#a-6"
       id="linearGradient1696"
       x1="21.686441"
       y1="26.415255"
       x2="21.788136"
       y2="20.652542"
       gradientUnits="userSpaceOnUse" />
  </defs>
  <sodipodi:namedview
     pagecolor="#ffffff"
     bordercolor="#666666"
     borderopacity="1"
     objecttolerance="10"
     gridtolerance="10"
     guidetolerance="10"
     inkscape:pageopacity="0"
     inkscape:pageshadow="2"
     inkscape:window-width="1366"
     inkscape:window-height="685"
     id="namedview38"
     showgrid="true"
     inkscape:zoom="7.375"
     inkscape:cx="-6.8217212"
     inkscape:cy="5.4140524"
     inkscape:window-x="0"
     inkscape:window-y="0"
     inkscape:window-maximized="1"
     inkscape:current-layer="svg36"
     inkscape:snap-global="false">
    <inkscape:grid
       type="xygrid"
       id="grid1653" />
  </sodipodi:namedview>
  <path
     style="fill:url(#a)"
     d="M 6,3 V 29 H 26 V 14.189453 10 L 19,3 Z M 25.998047,26.066406 26,29 h -0.002 z"
     id="path1011"
     inkscape:connector-curvature="0"
     sodipodi:nodetypes="ccccccccccc" />
  <path
     style="fill:#98989d;fill-opacity:1"
     d="M 5.9980469 2 C 5.4440469 2 4.9980469 2.446 4.9980469 3 L 4.9980469 29 C 4.9980469 29.554 5.4440469 30 5.9980469 30 L 13 30 L 13.482422 30 L 22.087891 30 L 24 30 L 25.998047 30 C 26.552047 30 26.89053 29.543467 26.998047 29 L 26.998047 26 L 27 26 L 27 13 L 26.998047 13 L 26.998047 8.3847656 L 20.490234 2 L 5.9980469 2 z M 5.9980469 3 L 18.998047 3 L 18.998047 9 C 18.998047 9.6726441 19.489425 10 19.998047 10 L 25.998047 10 L 25.998047 14.189453 C 25.998047 14.189453 26 14.189453 26 14.189453 L 26 26 L 26.064453 26 L 25.998047 26.066406 L 25.998047 29 L 24 29 L 23.082031 29 L 13.728516 29 L 13 29 L 5.9980469 29 L 5.9980469 3 z "
     id="path4" />
  <rect
     fill="#808080"
     height="1"
     ry=".5"
     width="5"
     x="8"
     y="10"
     id="rect14"
     style="fill:#98989d;fill-opacity:1" />
  <rect
     fill="#808080"
     height="1"
     ry=".5"
     width="9"
     x="8"
     y="14"
     id="rect16"
     style="fill:#98989d;fill-opacity:1" />
  <g
     fill="#d65532"
     id="g24"
     style="fill:#ff9f0a;fill-opacity:1">
    <rect
       height="1"
       ry=".5"
       width="5"
       x="19"
       y="14"
       id="rect18"
       style="fill:#ff9f0a;fill-opacity:1" />
    <rect
       height="1"
       ry=".5"
       width="7"
       x="8"
       y="18"
       id="rect20"
       style="fill:#ff9f0a;fill-opacity:1" />
    <path
       style="fill:#ff9f0a;fill-opacity:1"
       d="M 8.5 26 C 8.223 26 8 26.223 8 26.5 C 8 26.777 8.223 27 8.5 27 L 14.220703 27 L 14.466797 26 L 8.5 26 z "
       id="rect22" />
  </g>
  <g
     fill="#808080"
     id="g34">
    <rect
       height="1"
       ry=".474576"
       width="4"
       x="8"
       y="22"
       id="rect26"
       style="fill:#98989d;fill-opacity:1" />
    <path
       style="fill:#98989d;fill-opacity:1"
       d="M 14.474609 22 C 14.211694 22 14 22.211694 14 22.474609 L 14 22.525391 C 14 22.788306 14.211694 23 14.474609 23 L 16.771484 23 L 17.724609 22.046875 C 17.663714 22.018562 17.597203 22 17.525391 22 L 14.474609 22 z "
       id="rect28" />
    <rect
       height="1"
       ry=".474576"
       width="4"
       x="17"
       y="18"
       id="rect30"
       style="fill:#98989d;fill-opacity:1" />
    <rect
       height="1"
       ry=".5"
       width="2"
       x="15"
       y="10"
       id="rect32"
       style="fill:#98989d;fill-opacity:1" />
  </g>
  <path
     inkscape:connector-curvature="0"
     style="fill:url(#b);fill-rule:evenodd"
     d="m 20,9 h 6 L 20,3 Z"
     id="path1015" />
  <path
     style="fill:#ffffff;fill-opacity:0.78431374"
     d="M 26.998047 13 L 26.998047 17.556641 C 26.667049 17.373536 26.334016 17.201097 26 17.050781 L 26 14.189453 L 25.998047 14.189453 L 25.998047 17.048828 C 24.520367 16.384313 23.014722 16.034973 21.482422 16.042969 C 17.528714 16.063539 13.788603 18.394734 10.285156 22.482422 C 9.9259416 22.902024 9.9749112 23.533384 10.394531 23.892578 L 11.152344 24.542969 C 11.571946 24.902184 12.203306 24.853215 12.5625 24.433594 C 13.489764 23.351698 14.375513 22.688665 15.269531 21.945312 C 15.142271 22.451871 15 22.954801 15 23.5 C 15 25.813824 16.225524 27.847665 18.056641 29 C 18.949558 29.561919 19.986096 29.911513 21.097656 29.980469 C 21.108376 29.986509 21.118156 29.994 21.128906 30 L 22.087891 30 L 24 30 L 25.998047 30 C 26.552047 30 26.89053 29.543467 26.998047 29 L 26.998047 26 L 27 26 L 27 13 L 26.998047 13 z M 26 26 L 26.064453 26 L 26 26.064453 L 26 26 z M 25.998047 28.177734 L 25.998047 29 L 24.943359 29 C 25.322681 28.761291 25.676452 28.487126 25.998047 28.177734 z "
     id="path867" />
  <g
     id="g859">
    <path
       id="path4-8"
       d="M 21.5,18 C 18.462434,18 16,20.462434 16,23.5 16,26.537566 18.462434,29 21.5,29 24.537566,29 27,26.537566 27,23.5 27,20.462434 24.537566,18 21.5,18 Z m 0,1 A 4.5,4.5 0 0 1 26,23.5 4.5,4.5 0 0 1 21.5,28 4.5,4.5 0 0 1 17,23.5 4.5,4.5 0 0 1 21.5,19 Z"
       style="fill:#98989d;fill-opacity:1"
       inkscape:connector-curvature="0" />
    <circle
       id="circle6"
       r="4.5"
       cy="23.500002"
       cx="21.5"
       style="fill:#ffffff" />
    <path
       id="path28"
       d="m 21.483799,20.532509 c -1.647906,0 -2.983799,1.335893 -2.983799,2.983801 0,1.647906 1.335893,2.983799 2.983799,2.983799 1.647908,0 2.983801,-1.335892 2.983801,-2.983799 0.0432,-0.290763 0.0432,-0.586312 0,-0.877076 -0.259603,0.580395 -0.858514,0.932489 -1.4919,0.877076 -0.823954,0 -1.491901,-0.667947 -1.491901,-1.491901 -0.05492,-0.634098 0.298454,-1.233222 0.879989,-1.4919 -0.291717,-0.04349 -0.588271,-0.04349 -0.879989,0 z"
       style="fill:url(#linearGradient1696);fill-opacity:1"
       inkscape:connector-curvature="0" />
    <path
       id="path30"
       d="m 11.423729,23.457627 c 6.689796,-7.805398 13.423201,-7.979466 20.20339,0.0339"
       style="fill:none;stroke:#98989d;stroke-opacity:1"
       inkscape:connector-curvature="0" />
  </g>
</svg>
